!!! OTL: Berkowitz354
!!! Chapter: 1
!!! Section: III
!!! Page: 86
!!! Mode: 
!!! Encoder: DJB
**kern
*staff1
*I"Piano
=1-
*clefC3
*k[f#]
*e:
*M5/8
4e\
8g\
8b\L
8a\J
=2
4g\
8e\
8f#\L
8d#\J
=3
4e\
8g\
8b\L
8a\J
=4
4g\
8e\
4f#\
=5
4g\
8b\
8dd\L
8cc\J
=6
4b\
8g\
8a\L
8f#\J
=7
4b\
8a\
8g\L
8e\J
=8
8f#\L
8d#\J
4.e\
==
*-
